X: 3075
T: Mrs WRIGHT
Q:"Strathspey."
R: Strathspey.
%R:strathspey
B: James Kerr "Merry Melodies" v.3 p.10 #75
Z: 2016 John Chambers <jc:trillian.mit.edu>
M: C
L: 1/16
K: Em
e2 |\
BE3 B3A BE3 Be3 | dD3 BAGF dD3 BAGF |\
BE3 B3A BE3 Be3 | dB3 d3F EE3 E2 ::\
B2 |\
e3Be3g B3eg3e |
d3fA3d FD3 A3F |\
[1 e3Be3g B3eg3e | dB3 d3F EE3 E2 :|\
[2 G3BE3B e3B g3e | dB3 d3F EE3 E2 |]

%%sep 1 1 500
%%sep 1 1 500

